X:226
T:The Providence                                                                                    
R:reel                                                                                              
D:Matt Molloy & Sean Keane: Contentment is Wealth.                                                  
N: From Henrik Norbek - Z:id:hn-reel-15                                                             
M:C|                                                                                                
K:D                                                                                                 
E3F DEFA|d2fd gefd|edBd A2FA|(3Bcd AF GFED|                                                         
E3F DEFA|d2fd gefd|edBd A2FA|1 (3Bcd AG FDDF:|2 (3BcdAG FDDe||                                      
|:fd d2 fdge|fd d2 ecAe|fd d2 fgaf|gfeg fdde|                                                       
fgaf gfec|dBAF G2FG|A3F ABde|1 faeg fdde:|2 faeg fdAF||
